X:1
T:Miss Nelly. (p)1687.PLFD.281
L:1/4
Q:3/4=80
M:6/4
I:linebreak $
K:F
V:1 treble 
V:1
 c | f3/2 g/ f (e f) c | d2 A B G2 | E3 G2 A | B3/2 c/ d c (d/c/)(B/A/) | f2 A B G2 | F3- F2 :: %7
 F |$ (E/F/) G c (A F) c | f3/2 g/ f (e c) (b/a/) | g3 G2 A | (A/B/) c A (b a) g | %12
 (a d) g (e c) e | f3- f2 :| %14
